X:138
T: Weinfuhrmann (2-40) S. 129
N: P0913
O: Lothringen
S: PINCK, Louis: Verklingende Weisen, Bd 2, Metz 1928]
R: ???, Untreue]
M: 3/8
L: 1/16
K: G
D2 | D4G2 | A3cBA | G2G2A2 | G4
D2 | D4G2 | A3cBA | G4A2 | G4z2 |
A6 | G2D2G2 | A4BA | G2F2G2 | A4z2 |
d4cB | AAB2AG | F6 | G4

@@@ Tune index: 7688
